svgs/light/handshake.svg

<svg xmlns="http://www.w3.org/2000/svg" viewBox="0 0 640 512"><!--! Font Awesome Pro 6.0.0-alpha3 by @fontawesome - https://fontawesome.com License - https://fontawesome.com/license (Commercial License) --><path d="M640 400c0 8.844-7.156 16-16 16H576c-20.83 0-38.43-13.42-45.05-32h-31.68c-1.695 4.467-3.529 8.932-6.689 12.84l-9.094 11.25c-14 17.34-38.19 21.88-57.41 11.97l-20.27 24.97c-18.03 21.97-50.47 25.25-72.31 7.406l-6.094-5.281c-11.14 9-25.12 14.88-40.23 16.44C284.5 463.9 281.8 464 279.1 464c-17.58 0-34.48-6-48.33-17.25L149.5 384H109.1C102.4 402.6 84.83 416 64 416H32c-8.844 0-16-7.156-16-16S23.16 384 32 384l32-.0606c8.828 0 16-7.127 16-15.94V160h-64C7.156 160 0 152.8 0 144S7.156 128 16 128h114.9c33.55-33.2 76.95-55.11 122.8-61.77c8.781-1.391 16.86 4.781 18.12 13.53C273.1 88.5 267 96.63 258.3 97.89C217.4 103.8 178.7 124.1 149.3 154.9L144.6 159.8L112 160v192h48.39l90.3 69.69c9.625 7.781 21.22 11.25 33.2 10.06c11.88-1.219 22.56-7 30.09-16.28l10.55-10.53l12.62 8.312L354.1 428c7.844 6.406 20.09 5.094 26.89-3.188l40-49.25l17.56 14.72c5.953 4.719 15.09 3.844 20.03-2.312l9.094-11.25c4.953-6.125 4.016-15.19-2.109-20.19l-108.5-88.11c-6.859-5.578-7.891-15.66-2.328-22.52c5.547-6.844 15.62-7.906 22.52-2.328l108.5 88.14c6.725 5.471 10.75 12.67 13.52 20.28H528V160h-32.31l-4.703-4.797C454.1 117.6 404.7 96 355.6 96h-8.172c-3.562 0-6.953 1.359-9.766 3.922L244.4 187.2C234.3 196.9 235.8 211.1 243.1 219.2C245.6 221.9 251.9 226.1 259.2 226.5c5.125 .0938 10.11-1.609 14.62-5.703l.6406 .7031C282.7 212.4 302.5 194 350.1 149.8c6.469-5.984 16.58-5.656 22.61 .8281c6.016 6.469 5.641 16.59-.8281 22.61L295.4 244.4C285.3 253.6 273.1 258.5 260.2 258.5c-.8594 0-1.719-.0313-2.594-.0625C240.5 257.6 226.6 248.7 219.4 240.6c-19.7-21.69-18.88-54.53 1.734-75.39L221.5 164.8l94.47-88.34C324.8 68.36 335.9 64 347.4 64h8.172c55.52 0 111 23.25 153.4 64H624C632.8 128 640 135.2 640 144S632.8 160 624 160h-64v208c0 8.812 7.17 16.01 15.1 16.01L624 384C632.8 384 640 391.2 640 400z"/></svg>

<svg xmlns="http://www.w3.org/2000/svg" viewBox="0 0 640 512"><!-- Font Awesome Pro 6.0.0-alpha2 by @fontawesome - https://fontawesome.com License - https://fontawesome.com/license (Commercial License) --><path d="M640 400C640 408.844 632.844 416 624 416H576C555.168 416 537.574 402.584 530.947 384H499.268C497.572 388.467 495.738 392.932 492.578 396.844L483.484 408.094C469.484 425.438 445.297 429.969 426.078 420.062L405.813 445.031C387.781 467 355.344 470.281 333.5 452.437L327.406 447.156C316.266 456.156 302.281 462.031 287.172 463.594C284.484 463.875 281.812 464 279.141 464C261.562 464 244.656 458 230.812 446.75L149.484 384H109.053C102.426 402.584 84.832 416 64 416H32C23.156 416 16 408.844 16 400S23.156 384 32 384H64C72.828 384 80 376.812 80 368V160H16C7.156 160 0 152.844 0 144S7.156 128 16 128H130.875C164.422 94.797 207.828 72.891 253.703 66.234C262.484 64.844 270.563 71.016 271.828 79.766C273.109 88.5 267.047 96.625 258.297 97.891C217.359 103.844 178.656 124.078 149.344 154.875L144.609 159.844L112 160V352H160.391L250.687 421.688C260.312 429.469 271.906 432.938 283.891 431.75C295.766 430.531 306.453 424.75 313.984 415.469L324.531 404.937L337.156 413.25L354.125 428C361.969 434.406 374.219 433.094 381.016 424.812L421.016 375.562L438.578 390.281C444.531 395 453.672 394.125 458.609 387.969L467.703 376.719C472.656 370.594 471.719 361.531 465.594 356.531L357.078 268.422C350.219 262.844 349.187 252.766 354.75 245.906C360.297 239.062 370.375 238 377.266 243.578L485.781 331.719C492.506 337.189 496.535 344.385 499.301 352H528V160H495.688L490.984 155.203C454.078 117.578 404.734 96 355.609 96H347.438C343.875 96 340.484 97.359 337.672 99.922L244.391 187.219C234.266 196.938 235.797 211.078 243.141 219.156C245.625 221.938 251.891 226.094 259.203 226.453C264.328 226.547 269.313 224.844 273.828 220.75L274.469 221.453C282.688 212.391 302.484 194 350.078 149.781C356.547 143.797 366.656 144.125 372.688 150.609C378.703 157.078 378.328 167.203 371.859 173.219C371.859 173.219 317.422 223.797 300.609 239.5V239.641L295.391 244.406C285.25 253.641 273.141 258.484 260.203 258.484C259.344 258.484 258.484 258.453 257.609 258.422C240.469 257.562 226.625 248.656 219.391 240.609C199.687 218.922 200.516 186.078 221.125 165.219L221.5 164.766L315.969 76.422C324.797 68.359 335.922 64 347.438 64H355.609C411.125 64 466.656 87.25 508.984 128H624C632.844 128 640 135.156 640 144S632.844 160 624 160H560V368C560 376.812 567.172 384 576 384H624C632.844 384 640 391.156 640 400Z"/></svg>
